X: 104
T:Gay Gordons
C:M-17 Credited to Pipe Major
C:George S. McLennan
L:1/8
M:C|
K:A
E2|"A"A2AB c2A2|"D"dcde f2ed|"A"c2a2 efed|"E"c2B2B2E2|
"A"A2AB c2 A2| "D"dcde f2 ed|c2a2 efed|c2A2A2e2||
"A"a4e2fg|a2e2c2A2|"A"a2a2 "(D)"efed| "E"c2B2B2e2|
"A"a4e2fg|a2e2c2A2| "D"d2B2 "E"efed|"A"c2A2A2|]

